images/right-icon-blue.svg

<svg width="20px" height="20px" viewBox="0 0 20 20" version="1.1" xmlns="http://www.w3.org/2000/svg" xmlns:xlink="http://www.w3.org/1999/xlink">
  <path fill="#065466" d="M10,0 C4.4773336,0 0,4.47733336 0,10 C0,15.5226666 4.4773336,20 10,20 C15.5226664,20 20,15.5226666 20,10 C20,4.47733336 15.5226664,0 10,0 Z M10.4878448,13.3384445 L8.1311776,15.696 L2.8342888,10.4 L5.1909552,8.04244448 L8.1309552,10.9824445 L14.8089552,4.30355552 L17.1656224,6.66022224 L10.4878448,13.3384445 Z"></path>
</svg>

<svg width="20" height="20" xmlns="http://www.w3.org/2000/svg"><path fill="#065466" d="M10 0C4.477 0 0 4.477 0 10s4.477 10 10 10 10-4.477 10-10S15.523 0 10 0zm.488 13.338L8.13 15.696 2.834 10.4l2.357-2.358 2.94 2.94 6.678-6.678 2.357 2.356-6.678 6.678z"/></svg>
